images/spotify_icon.svg

<svg fill="none" height="16" viewBox="0 0 16 16" width="16" xmlns="http://www.w3.org/2000/svg"><path d="m7.99963.0263672c-4.40466 0-7.9755211 3.5707628-7.9755211 7.9754328 0 4.4049 3.5708611 7.9753 7.9755211 7.9753 4.40517 0 7.97567-3.5704 7.97567-7.9753 0-4.40439-3.5705-7.9750519-7.97576-7.9750519zm3.65757 11.5028328c-.1429.2343-.4496.3086-.6839.1648-1.87252-1.1438-4.22986-1.4029-7.00605-.7686-.26752.061-.53419-.1067-.59514-.3743-.06124-.2676.10571-.5343.3739-.59521 3.0381-.69438 5.6441-.39524 7.74639.88951.2343.1438.3086.4495.1648.6838zm.9761-2.17188c-.18.29286-.5628.38524-.8552.20524-2.1438-1.318-5.41171-1.69962-7.94742-.92991-.32886.09934-.67619-.086-.776-.41428-.09905-.32886.08638-.67553.41467-.77553 2.89647-.87885 6.49733-.45314 8.95925 1.05972.2924.18.3847.56285.2047.85485zm.0839-2.26133c-2.5705-1.52677-6.81147-1.66715-9.26566-.92229-.3941.11952-.81086-.10295-.93029-.49705-.11943-.39428.10286-.81076.49724-.93057 2.81724-.85524 7.50061-.69 10.46001 1.06686.3552.21038.4714.66819.2609 1.02219-.2095.35448-.6685.47133-1.0219.26086z" fill="#1ed760"/></svg>

<svg width="16" height="16" viewBox="0 0 16 16" fill="none" xmlns="http://www.w3.org/2000/svg">
<path d="M7.99963 0.0263672C3.59497 0.0263672 0.0241089 3.59713 0.0241089 8.0018C0.0241089 12.4067 3.59497 15.9771 7.99963 15.9771C12.4048 15.9771 15.9753 12.4067 15.9753 8.0018C15.9753 3.59741 12.4048 0.0267481 7.99954 0.0267481L7.99963 0.0263672V0.0263672ZM11.6572 11.5292C11.5143 11.7635 11.2076 11.8378 10.9733 11.694C9.10078 10.5502 6.74344 10.2911 3.96725 10.9254C3.69973 10.9864 3.43306 10.8187 3.37211 10.5511C3.31087 10.2835 3.47782 10.0168 3.74601 9.95589C6.78411 9.26151 9.39011 9.56065 11.4924 10.8454C11.7267 10.9892 11.801 11.2949 11.6572 11.5292V11.5292ZM12.6333 9.35732C12.4533 9.65018 12.0705 9.74256 11.7781 9.56256C9.6343 8.24456 6.36639 7.86294 3.83068 8.63265C3.50182 8.73199 3.15449 8.54665 3.05468 8.21837C2.95563 7.88951 3.14106 7.54284 3.46935 7.44284C6.36582 6.56399 9.96668 6.9897 12.4286 8.50256C12.721 8.68256 12.8133 9.06541 12.6333 9.35741V9.35732ZM12.7172 7.09599C10.1467 5.56922 5.90573 5.42884 3.45154 6.1737C3.05744 6.29322 2.64068 6.07075 2.52125 5.67665C2.40182 5.28237 2.62411 4.86589 3.01849 4.74608C5.83573 3.89084 10.5191 4.05608 13.4785 5.81294C13.8337 6.02332 13.9499 6.48113 13.7394 6.83513C13.5299 7.18961 13.0709 7.30646 12.7175 7.09599H12.7172Z" fill="#1ED760"/>
</svg>
